X: 28993
T: Naughton's
R: reel
M: 4/4
K: Amixolydian
A2 EA c/d/e ed|BG~G2 eGdG|EA c/d/e a2 ed|c/d/e dB BAAG|
~A2 eA c/d/e ed|BG~G2 eGdG|EA c/d/e a2 ed|c/d/e dB BA A2||
a2 ea~a2 ba|g2ef ~g3b|a2 ea ~a2 ba|gedB EA~A2|
a2 ea~a2 ba|g2ef ~g3a|~b3a gbag|gedB eBdB|

